source/img/icon-insta.svg

<svg version="1.1" id="Layer_1" xmlns="http://www.w3.org/2000/svg" x="0" y="0" width="21.769" height="21.334" viewBox="53.115 53.19 21.769 21.334" xml:space="preserve"><path d="M74.881 65.336c-.013-2.395-.344-4.788-.303-7.135a37.854 37.854 0 00-.152-2.278c-.105-.3-.111-.699-.152-1.062-.26-.17-.222-.64-.456-.835-.423-.233-1.201-.114-1.744-.22-.657-.026-1.254-.115-1.899-.153-1.936-.101-3.973-.076-5.996-.076-2.001 0-3.954-.145-5.695-.379h-2.202c-.097.004-.105.098-.227.076-.599.034-1.077.188-1.595.303-.21.119-.421.235-.683.304-.136.192-.513.145-.607.379-.186.212.185.451 0 .607v.911c.173.13.027.58.075.835v.987c-.017 1.281.134 2.397.076 3.72.467 2.762.374 6.537.076 9.413.155.579.363 1.105.455 1.746.256.479.335 1.133.683 1.52.502.206 1.233.186 1.898.229.383.098.667.293 1.14.3 2.843-.21 5.496-.154 8.427-.229 2.704.24 5.802.188 8.275-.228.195-.134.128-.529.228-.76-.056-.385.207-.449.228-.759.131-2.395.164-4.789.15-7.216zm-12.982-6.225c.757-.153 1.48-.341 2.429-.304.71.076 1.287.283 1.897.456.116.184-.243.547.153.684v.076c.059.017.149.002.151.076.445.035.794.167 1.063.379.45.055.536.476 1.138.3-.091.213-.084.524-.075.835.324 1.183.475 2.81.303 4.252-.164.163-.215.442-.303.683-.311.322-.481.785-.836 1.062-.095.236-.25.408-.454.533-.116.213-.206.452-.457.53-.298.163-.577.011-.834-.076-.446.162-.904.312-1.215.607-.816-.096-1.648-.175-2.43-.304-.242-.139-.487-.273-.835-.305a1.997 1.997 0 00-.836-.455c-.101-.127-.337-.118-.455-.229-.198-.029-.229-.227-.456-.229-.118-.412-.443-.618-.532-1.062-.226-.331-.308-.805-.455-1.215-.043-1.434.091-2.692.379-3.796.346-.591.779-1.094 1.138-1.67.249.021.365-.09.38-.304.306.053.434-.072.684-.075.257.008.269-.309.458-.449zm-1.67-2.733c-.117-.263-.066-.691-.075-1.062-.007-.285.278-.279.304-.532-.003-.074-.093-.059-.152-.076.126-.146.701-.097.834 0 .132.537-.354.455-.531.684.011.167.322.032.456.076.029.854-.059 1.496 0 2.202h-.456c-.007.234.229.226.456.228-.059.286.092.363.075.607-.226.153-.716.042-1.062.075-.103-.594.235-1.375.151-2.202zm-.683-1.594c.088-.013.134.016.151.076.179.253.01.683-.076.911-.173-.179-.026-.682-.075-.987zm.152 1.822c-.132-.069-.168-.237-.152-.456.132.071.167.238.152.456zm0 1.367c-.058.139-.082-.045-.076-.152.058-.139.081.045.076.152zm-.152.228c.175-.024.084.219.228.227-.009.193-.283.179-.38.077.039-.112.113-.193.152-.304zm-2.354-1.216c.006-.108.013-.214-.076-.228-.073-.733.13-1.415 0-1.973.25-.155.769-.042 1.139-.077v1.139c-.088.064-.203.101-.379.077-.054.28.324.131.379.304.008.853-.056 1.777.152 2.429-.565-.059-.906.107-1.442.076.097-.612-.019-1.435.531-1.594-.012-.141-.257-.047-.304-.153zm-.531 0c-.204.021-.217-.534-.077-.607.328.006.249.501.077.607zm-.152.988c.077-.312.034-.304.075-.683.228.013.26.77-.075.683zm.228-2.05c-.263.054-.273-.266-.153-.38.263-.053.272.267.153.38zm0-1.139c.033.159-.052.201-.076.304-.176.023-.084-.219-.229-.229.025-.102.191-.062.305-.075zm-.228 3.721c.148-.031.11.345-.076.227a.363.363 0 00.076-.227zm-.684-3.721c.029.259-.438.32-.379 0h.379zm-.987.076c-.034.219-.326.179-.379.379-.214-.17.084-.468.379-.379zm-.455.759c.226-.205.451-.41.684-.607-.021-.123.071-.131.076-.228h.229c.102.381-.261.296-.305.531.021.122-.072.131-.075.227.02.335.121.588.075.988-.27.008-.276.28-.607.227.022-.428-.135-.674-.077-1.138zm.076 3.265V57.29c.195-.185.396-.364.607-.532.295.489.179 1.392.455 1.897-.275.157-.75.111-1.062.229zM72.68 69.968c-.109.954-.158 1.968-.379 2.809-2.89.123-6.02.005-8.883.153-.199.045-.273-.031-.229-.229-.253 0-.258.247-.531.229.201-.336.438-.898.151-1.291-.797.013-.797.821-1.138 1.291-.686-.053-1.137.127-1.823.075.18-.705.75-1.021.911-1.745-.395-.55-.989.138-1.214.455-.204.48-.557.81-.76 1.29H57.8c.238-.469.489-.926.759-1.366.171-.512.625-.741.683-1.367-.157-.28-.42-.029-.683 0-.123.182-.272.335-.38.531-.232.376-.501.714-.684 1.14-.181.208-.335.003-.53.227-.389.271-.581.736-.988.987-.174-.06.039-.356.153-.38.045-.181-.096-.55.075-.607.063-.366.212-.647.379-.91.119-.742.521-1.199.684-1.898-.559.099-.674.643-.988.987-.212.445-.542.772-.683 1.291-.174-.131-.028-.58-.076-.836.122-.586.298-1.119.38-1.746.133-.22.173-.535.228-.834.168-.209.046-.61-.077-.761-.226.027-.374.133-.455.304-.192-.032-.193.506-.304.304-.045-2.587-.451-4.812-.456-7.438.026-.331-.183-.424-.228-.685 1.629.028 3.121.091 4.783.229-.089.139-.199.257-.304.379-.144.07-.226.173-.378.304-.604 1.653-.975 3.984-.607 6.15.229.58.589 1.029.986 1.441.907.485 1.635 1.149 2.506 1.671 1.701.361 3.84.369 5.541 0 .236-.12.484-.226.685-.38 1.364-1.242 2.753-2.459 2.961-4.859v-1.367c-.197-1.598-.688-2.905-1.747-3.644.331-.22 1.099.043 1.67.076.223.013.447.014.684 0 .408-.024.928-.055 1.443 0 .144.187.113.544.228.76-.062 1.684-.192 3.3-.152 5.087.103.454.127.986.229 1.441-.091.973-.237 1.89-.457 2.732zm.379-11.16c-.639-.12-1.232-.284-1.897-.379.072-.333.799-.01.987-.228.385-.223.295-.92.304-1.51.032-.348.114-.644.076-1.063-.401-.951-1.783-.421-2.886-.455-.225.718-.47 1.8-.304 2.657.169.49 1.024.292 1.519.456-.14.332-.688.057-.987.076-.296-.083-.707-.052-.986-.151-2.285.078-4.284.004-6.529.151.117-1.248.063-2.465-.076-3.645h3.112c-.344.364-.912.507-1.29.835-.44.244-.861.505-1.139.911.249.134.535-.245.759-.379.355-.074.479-.381.835-.455.423-.438 1.096-.625 1.67-.912.378-.022.697.013.987.077 1.283.007 2.456.126 3.796.076.614.145 1.45.069 1.974.304.107.298.231.579.305.911.008.986-.149 1.816-.23 2.723zm-5.845-3.72c.11-.047-.009-.092 0 0zm0 0c-.529.154-1.019.348-1.367.682.484-.198 1.059-.306 1.367-.682zm1.062.607c.111-.047-.007-.091 0 0zm-1.746.911c.727-.158 1.181-.591 1.746-.911-.437.019-.592.32-.987.379-.215.217-.6.26-.759.532zm-.683-.835c-.111.047.007.092 0 0zm-.683.607c.11-.046-.008-.092 0 0zm-.075.076c.063.014.07-.03.075-.076-.064-.014-.072.03-.075.076zm-.077.076c.064.014.072-.03.077-.076-.067-.013-.072.029-.077.076zm-.834.608c.346-.134.613-.348.834-.607a2.018 2.018 0 00-.834.607zm2.276.987c.533-.049.749-.416 1.215-.531.284-.298.784-.381.987-.76-.56.023-.766.399-1.216.531-.284.297-.751.413-.986.76zm-2.276-.987c-.317-.074-.016.227 0 0zm-.533.379c.021.021.115-.037.076-.077-.021-.02-.116.038-.076.077zm2.809.608c-.11.047.007.091 0 0zm-1.14 1.821c-.223-.231-.676-.233-.986-.379-.697-.038-1.223.093-1.746.229-.304.151-.607.304-.91.454-.266.166-.444.417-.76.532-.205.225-.352.51-.684.607-.004.223-.173.281-.304.379-.089.115-.094.312-.227.381-.007.12.036.29-.076.303.108 1.512.291 2.948.683 4.177.287.623.975.846 1.442 1.29.589.297 1.328.444 2.126.531.277-.052.553-.105.911-.076a5.088 5.088 0 002.81-1.441c.1-.281.252-.508.455-.684-.254-.671.293-1.098.455-1.59.002-1.344-.201-2.48-.607-3.415-.256-.579-.92-.751-1.366-1.139-.059-.018-.15-.003-.151-.077-.269-.136-.733-.239-1.065-.082zm-3.415 4.327c-.113-.063-.109-.244-.152-.379.256-.078.118.237.152.379zm.076.305c.041-.117.079-.006.076.075-.04.118-.079.005-.076-.075zm.456-2.051c.015-.086.075-.042.075 0-.014.087-.075.043-.075 0zm1.67-2.125c-.203.258.041.576.077.836-.305-.039-.574-.887-.077-.836zm.379 3.948c-.04-.038.055-.097.076-.076.04.038-.054.097-.076.076zm.759 2.884c.034-.109.066.008.152 0-.018.097-.15.077-.152 0zm2.201-2.581c-.233-.057-.145.208-.379.152.069-.159.118-.338.229-.455.134.019.172.13.15.303zm-1.137-3.796c.211.119.441.217.606.381.085.219.243.363.38.529.058.778.179 1.492.151 2.354-.257.099-.438.271-.683.381-.78-.006-1.358-.212-1.897-.456-.171-.259-.355-.505-.532-.759v-1.062c.17-.185.319-.391.456-.607.228-.127.508-.201.454-.607-.038-.062-.078-.124-.075-.229.158.045.245.159.379.229.323.017.41-.2.761-.154z" id="instagram"/></svg>

<svg version="1.1" id="Layer_1" xmlns="http://www.w3.org/2000/svg" xmlns:xlink="http://www.w3.org/1999/xlink" x="0px" y="0px" width="21.769px" height="21.334px" viewBox="53.115 53.19 21.769 21.334" enable-background="new 53.115 53.19 21.769 21.334" xml:space="preserve">
  <g id="instagram">
    <g>
      <path fill="#231F20" d="M74.881,65.336c-0.013-2.395-0.344-4.788-0.303-7.135c-0.023-0.788-0.086-1.535-0.152-2.278 c-0.105-0.3-0.111-0.699-0.152-1.062c-0.26-0.17-0.222-0.64-0.456-0.835c-0.423-0.233-1.201-0.114-1.744-0.22 c-0.657-0.026-1.254-0.115-1.899-0.153c-1.936-0.101-3.973-0.076-5.996-0.076c-2.001,0-3.954-0.145-5.695-0.379h-2.202 c-0.097,0.004-0.105,0.098-0.227,0.076c-0.599,0.034-1.077,0.188-1.595,0.303c-0.21,0.119-0.421,0.235-0.683,0.304 c-0.136,0.192-0.513,0.145-0.607,0.379c-0.186,0.212,0.185,0.451,0,0.607v0.911c0.173,0.13,0.027,0.58,0.075,0.835v0.987 c-0.017,1.281,0.134,2.397,0.076,3.72c0.467,2.762,0.374,6.537,0.076,9.413c0.155,0.579,0.363,1.105,0.455,1.746 c0.256,0.479,0.335,1.133,0.683,1.52c0.502,0.206,1.233,0.186,1.898,0.229c0.383,0.098,0.667,0.293,1.14,0.30 c2.843-0.21,5.496-0.154,8.427-0.229c2.704,0.24,5.802,0.188,8.275-0.228c0.195-0.134,0.128-0.529,0.228-0.76 c-0.056-0.385,0.207-0.449,0.228-0.759C74.862,70.157,74.895,67.763,74.881,65.336z M61.899,59.111 c0.757-0.153,1.48-0.341,2.429-0.304c0.71,0.076,1.287,0.283,1.897,0.456c0.116,0.184-0.243,0.547,0.153,0.684v0.076 c0.059,0.017,0.149,0.002,0.151,0.076c0.445,0.035,0.794,0.167,1.063,0.379c0.45,0.055,0.536,0.476,1.138,0.3 c-0.091,0.213-0.084,0.524-0.075,0.835c0.324,1.183,0.475,2.81,0.303,4.252c-0.164,0.163-0.215,0.442-0.303,0.683 c-0.311,0.322-0.481,0.785-0.836,1.062c-0.095,0.236-0.25,0.408-0.454,0.533c-0.116,0.213-0.206,0.452-0.457,0.53 c-0.298,0.163-0.577,0.011-0.834-0.076c-0.446,0.162-0.904,0.312-1.215,0.607c-0.816-0.096-1.648-0.175-2.43-0.304 c-0.242-0.139-0.487-0.273-0.835-0.305c-0.227-0.204-0.496-0.364-0.836-0.455c-0.101-0.127-0.337-0.118-0.455-0.229 c-0.198-0.029-0.229-0.227-0.456-0.229c-0.118-0.412-0.443-0.618-0.532-1.062c-0.226-0.331-0.308-0.805-0.455-1.215 c-0.043-1.434,0.091-2.692,0.379-3.796c0.346-0.591,0.779-1.094,1.138-1.67c0.249,0.021,0.365-0.09,0.38-0.304 c0.306,0.053,0.434-0.072,0.684-0.075C61.698,59.568,61.71,59.251,61.899,59.111z M60.229,56.378 c-0.117-0.263-0.066-0.691-0.075-1.062c-0.007-0.285,0.278-0.279,0.304-0.532c-0.003-0.074-0.093-0.059-0.152-0.076 c0.126-0.146,0.701-0.097,0.834,0c0.132,0.537-0.354,0.455-0.531,0.684c0.011,0.167,0.322,0.032,0.456,0.076 c0.029,0.854-0.059,1.496,0,2.202h-0.456c-0.007,0.234,0.229,0.226,0.456,0.228c-0.059,0.286,0.092,0.363,0.075,0.607 c-0.226,0.153-0.716,0.042-1.062,0.075C59.975,57.986,60.313,57.205,60.229,56.378z M59.546,54.784 c0.088-0.013,0.134,0.016,0.151,0.076c0.179,0.253,0.01,0.683-0.076,0.911C59.448,55.592,59.595,55.089,59.546,54.784z M59.698,56.606c-0.132-0.069-0.168-0.237-0.152-0.456C59.678,56.221,59.713,56.388,59.698,56.606z M59.698,57.973 c-0.058,0.139-0.082-0.045-0.076-0.152C59.68,57.682,59.703,57.866,59.698,57.973z M59.546,58.201 c0.175-0.024,0.084,0.219,0.228,0.227c-0.009,0.193-0.283,0.179-0.38,0.077C59.433,58.393,59.507,58.312,59.546,58.201z M57.192,56.985c0.006-0.108,0.013-0.214-0.076-0.228c-0.073-0.733,0.13-1.415,0-1.973c0.25-0.155,0.769-0.042,1.139-0.077v1.139 c-0.088,0.064-0.203,0.101-0.379,0.077c-0.054,0.28,0.324,0.131,0.379,0.304c0.008,0.853-0.056,1.777,0.152,2.429 c-0.565-0.059-0.906,0.107-1.442,0.076c0.097-0.612-0.019-1.435,0.531-1.594C57.484,56.997,57.239,57.091,57.192,56.985z M56.661,56.985c-0.204,0.021-0.217-0.534-0.077-0.607C56.912,56.384,56.833,56.879,56.661,56.985z M56.509,57.973 c0.077-0.312,0.034-0.304,0.075-0.683C56.812,57.303,56.844,58.06,56.509,57.973z M56.737,55.923 c-0.263,0.054-0.273-0.266-0.153-0.38C56.847,55.49,56.856,55.81,56.737,55.923z M56.737,54.784 c0.033,0.159-0.052,0.201-0.076,0.304c-0.176,0.023-0.084-0.219-0.229-0.229C56.457,54.757,56.623,54.797,56.737,54.784z M56.509,58.505c0.148-0.031,0.11,0.345-0.076,0.227C56.473,58.67,56.512,58.608,56.509,58.505z M55.825,54.784 c0.029,0.259-0.438,0.32-0.379,0H55.825z M54.838,54.86c-0.034,0.219-0.326,0.179-0.379,0.379 C54.245,55.069,54.543,54.771,54.838,54.86z M54.383,55.619c0.226-0.205,0.451-0.41,0.684-0.607 c-0.021-0.123,0.071-0.131,0.076-0.228h0.229c0.102,0.381-0.261,0.296-0.305,0.531c0.021,0.122-0.072,0.131-0.075,0.227 c0.02,0.335,0.121,0.588,0.075,0.988c-0.27,0.008-0.276,0.28-0.607,0.227C54.482,56.329,54.325,56.083,54.383,55.619z M54.459,58.884V57.29c0.195-0.185,0.396-0.364,0.607-0.532c0.295,0.489,0.179,1.392,0.455,1.897 C55.246,58.812,54.771,58.766,54.459,58.884z M72.68,69.968c-0.109,0.954-0.158,1.968-0.379,2.809 c-2.89,0.123-6.02,0.005-8.883,0.153c-0.199,0.045-0.273-0.031-0.229-0.229c-0.253,0-0.258,0.247-0.531,0.229 c0.201-0.336,0.438-0.898,0.151-1.291c-0.797,0.013-0.797,0.821-1.138,1.291c-0.686-0.053-1.137,0.127-1.823,0.075 c0.18-0.705,0.75-1.021,0.911-1.745c-0.395-0.55-0.989,0.138-1.214,0.455c-0.204,0.48-0.557,0.81-0.76,1.29H57.8 c0.238-0.469,0.489-0.926,0.759-1.366c0.171-0.512,0.625-0.741,0.683-1.367c-0.157-0.28-0.42-0.029-0.683,0 c-0.123,0.182-0.272,0.335-0.38,0.531c-0.232,0.376-0.501,0.714-0.684,1.14c-0.181,0.208-0.335,0.003-0.53,0.227 c-0.389,0.271-0.581,0.736-0.988,0.987c-0.174-0.06,0.039-0.356,0.153-0.38c0.045-0.181-0.096-0.55,0.075-0.607 c0.063-0.366,0.212-0.647,0.379-0.91c0.119-0.742,0.521-1.199,0.684-1.898c-0.559,0.099-0.674,0.643-0.988,0.987 c-0.212,0.445-0.542,0.772-0.683,1.291c-0.174-0.131-0.028-0.58-0.076-0.836c0.122-0.586,0.298-1.119,0.38-1.746 c0.133-0.22,0.173-0.535,0.228-0.834c0.168-0.209,0.046-0.61-0.077-0.761c-0.226,0.027-0.374,0.133-0.455,0.304 c-0.192-0.032-0.193,0.506-0.304,0.304c-0.045-2.587-0.451-4.812-0.456-7.438c0.026-0.331-0.183-0.424-0.228-0.685 c1.629,0.028,3.121,0.091,4.783,0.229c-0.089,0.139-0.199,0.257-0.304,0.379c-0.144,0.07-0.226,0.173-0.378,0.304 c-0.604,1.653-0.975,3.984-0.607,6.15c0.229,0.58,0.589,1.029,0.986,1.441c0.907,0.485,1.635,1.149,2.506,1.671 c1.701,0.361,3.84,0.369,5.541,0c0.236-0.12,0.484-0.226,0.685-0.38c1.364-1.242,2.753-2.459,2.961-4.859v-1.367 c-0.197-1.598-0.688-2.905-1.747-3.644c0.331-0.22,1.099,0.043,1.67,0.076c0.223,0.013,0.447,0.014,0.684,0 c0.408-0.024,0.928-0.055,1.443,0c0.144,0.187,0.113,0.544,0.228,0.76c-0.062,1.684-0.192,3.3-0.152,5.087 c0.103,0.454,0.127,0.986,0.229,1.441C73.046,68.209,72.9,69.126,72.68,69.968z M73.059,58.808 c-0.639-0.12-1.232-0.284-1.897-0.379c0.072-0.333,0.799-0.01,0.987-0.228c0.385-0.223,0.295-0.92,0.304-1.51 c0.032-0.348,0.114-0.644,0.076-1.063c-0.401-0.951-1.783-0.421-2.886-0.455c-0.225,0.718-0.47,1.8-0.304,2.657 c0.169,0.49,1.024,0.292,1.519,0.456c-0.14,0.332-0.688,0.057-0.987,0.076c-0.296-0.083-0.707-0.052-0.986-0.151 c-2.285,0.078-4.284,0.004-6.529,0.151c0.117-1.248,0.063-2.465-0.076-3.645h3.112c-0.344,0.364-0.912,0.507-1.29,0.835 c-0.44,0.244-0.861,0.505-1.139,0.911c0.249,0.134,0.535-0.245,0.759-0.379c0.355-0.074,0.479-0.381,0.835-0.455 c0.423-0.438,1.096-0.625,1.67-0.912c0.378-0.022,0.697,0.013,0.987,0.077c1.283,0.007,2.456,0.126,3.796,0.076 c0.614,0.145,1.45,0.069,1.974,0.304c0.107,0.298,0.231,0.579,0.305,0.911C73.297,57.071,73.14,57.901,73.059,58.808z M67.214,55.088C67.324,55.041,67.205,54.996,67.214,55.088L67.214,55.088z M67.214,55.088c-0.529,0.154-1.019,0.348-1.367,0.682 C66.331,55.572,66.906,55.464,67.214,55.088z M68.276,55.695C68.387,55.648,68.269,55.604,68.276,55.695L68.276,55.695z M66.53,56.606c0.727-0.158,1.181-0.591,1.746-0.911c-0.437,0.019-0.592,0.32-0.987,0.379 C67.074,56.291,66.689,56.334,66.53,56.606z M65.847,55.771C65.736,55.818,65.854,55.863,65.847,55.771L65.847,55.771z M65.164,56.378C65.274,56.332,65.156,56.286,65.164,56.378L65.164,56.378z M65.089,56.454c0.063,0.014,0.07-0.03,0.075-0.076 C65.1,56.364,65.092,56.408,65.089,56.454z M65.012,56.53c0.064,0.014,0.072-0.03,0.077-0.076 C65.022,56.441,65.017,56.483,65.012,56.53z M64.178,57.138c0.346-0.134,0.613-0.348,0.834-0.607 C64.664,56.664,64.397,56.878,64.178,57.138z M66.454,58.125c0.533-0.049,0.749-0.416,1.215-0.531 c0.284-0.298,0.784-0.381,0.987-0.76c-0.56,0.023-0.766,0.399-1.216,0.531C67.156,57.662,66.689,57.778,66.454,58.125z M64.178,57.138C63.861,57.064,64.162,57.365,64.178,57.138L64.178,57.138z M63.645,57.517c0.021,0.021,0.115-0.037,0.076-0.077 C63.7,57.42,63.605,57.478,63.645,57.517z M66.454,58.125C66.344,58.172,66.461,58.216,66.454,58.125L66.454,58.125z M65.314,59.946c-0.223-0.231-0.676-0.233-0.986-0.379c-0.697-0.038-1.223,0.093-1.746,0.229c-0.304,0.151-0.607,0.304-0.91,0.454 c-0.266,0.166-0.444,0.417-0.76,0.532c-0.205,0.225-0.352,0.51-0.684,0.607c-0.004,0.223-0.173,0.281-0.304,0.379 c-0.089,0.115-0.094,0.312-0.227,0.381c-0.007,0.12,0.036,0.29-0.076,0.303c0.108,1.512,0.291,2.948,0.683,4.177 c0.287,0.623,0.975,0.846,1.442,1.29c0.589,0.297,1.328,0.444,2.126,0.531c0.277-0.052,0.553-0.105,0.911-0.076 c1.209-0.209,2.098-0.736,2.81-1.441c0.1-0.281,0.252-0.508,0.455-0.684c-0.254-0.671,0.293-1.098,0.455-1.59 c0.002-1.344-0.201-2.48-0.607-3.415c-0.256-0.579-0.92-0.751-1.366-1.139c-0.059-0.018-0.15-0.003-0.151-0.077 C66.11,59.892,65.646,59.789,65.314,59.946z M61.899,64.273c-0.113-0.063-0.109-0.244-0.152-0.379 C62.003,63.816,61.865,64.131,61.899,64.273z M61.975,64.578c0.041-0.117,0.079-0.006,0.076,0.075 C62.011,64.771,61.972,64.658,61.975,64.578z M62.431,62.527c0.015-0.086,0.075-0.042,0.075,0 C62.492,62.614,62.431,62.57,62.431,62.527z M64.101,60.402c-0.203,0.258,0.041,0.576,0.077,0.836 C63.873,61.199,63.604,60.351,64.101,60.402z M64.48,64.35c-0.04-0.038,0.055-0.097,0.076-0.076 C64.596,64.312,64.502,64.371,64.48,64.35z M65.239,67.234c0.034-0.109,0.066,0.008,0.152,0 C65.373,67.331,65.241,67.311,65.239,67.234z M67.44,64.653c-0.233-0.057-0.145,0.208-0.379,0.152 c0.069-0.159,0.118-0.338,0.229-0.455C67.424,64.369,67.462,64.48,67.44,64.653z M66.303,60.857 c0.211,0.119,0.441,0.217,0.606,0.381c0.085,0.219,0.243,0.363,0.38,0.529c0.058,0.778,0.179,1.492,0.151,2.354 c-0.257,0.099-0.438,0.271-0.683,0.381c-0.78-0.006-1.358-0.212-1.897-0.456c-0.171-0.259-0.355-0.505-0.532-0.759v-1.062 c0.17-0.185,0.319-0.391,0.456-0.607c0.228-0.127,0.508-0.201,0.454-0.607c-0.038-0.062-0.078-0.124-0.075-0.229 c0.158,0.045,0.245,0.159,0.379,0.229C65.865,61.028,65.952,60.811,66.303,60.857z"/>
      </g>
    </g>
  </svg>
